public/images/ai33.svg

<svg width="100" height="100" viewBox="0 0 100 100" fill="none" xmlns="http://www.w3.org/2000/svg">
<path d="M12.5638 62.0195C18.9396 62.0195 24.1082 56.8664 24.1082 50.5098C24.1082 44.1531 18.9396 39 12.5638 39C6.18801 39 1.01941 44.1531 1.01941 50.5098C1.01941 56.8664 6.18801 62.0195 12.5638 62.0195Z" fill="#001A5E"/>
<path d="M13.2892 39.0195C7.9972 39.3517 3.8028 43.7485 3.8028 49.1223C3.8028 54.7111 8.35 59.2447 13.9556 59.2447C19.3456 59.2447 23.736 55.0629 24.0888 49.7867C23.7164 44.0025 19.0712 39.3908 13.2892 39.0195Z" fill="#7A9AEF"/>
<path d="M10.9764 57.5055C14.1264 57.5055 16.68 54.9596 16.68 51.819C16.68 48.6785 14.1264 46.1325 10.9764 46.1325C7.82642 46.1325 5.27283 48.6785 5.27283 51.819C5.27283 54.9596 7.82642 57.5055 10.9764 57.5055Z" fill="#001A5E"/>
<path d="M9.6853 50.292L3.20599 55.6966L5.79692 58.7841L12.2762 53.3796L9.6853 50.292Z" fill="#001A5E"/>
<path d="M33.7124 51.8777H36.3584V53.7732C36.3584 53.7732 35.888 54.1249 34.3592 54.1249C33.2224 54.1249 31.1644 53.8513 31.1644 50.7443C31.1644 47.1878 33.242 46.8751 35.1628 46.8751C37.0836 46.8751 38.9652 47.52 38.9652 47.52V44.1393C38.9652 44.1393 37.6128 43.5336 34.8296 43.5336C31.6544 43.5336 27.0876 45.0187 27.0876 50.0603C27.0876 54.8284 29.2632 57.4664 34.418 57.4664C38.1224 57.4664 39.6904 56.2354 39.6904 56.2354V49.4546H33.7124V51.8777Z" fill="#001A5E"/>
<path d="M82.4968 43.8658H78.5768V57.2124H82.4968V43.8658Z" fill="#001A5E"/>
<path d="M61.1328 50.9397L56.0564 43.8658H52.646V57.2124H56.566V50.2167L61.662 57.2124H65.0528V43.8658H61.1328V50.9397Z" fill="#001A5E"/>
<path d="M44.12 43.8658H41.1604V57.2124H44.12H45.0804H51.4112V54.2617H45.0804V52.0145H50.5684V49.0637H45.0804V46.8165H51.4112V43.8658H45.0804H44.12Z" fill="#001A5E"/>
<path d="M73.9904 49.2201C71.7952 48.6338 70.58 48.4384 70.58 47.7154C70.58 46.9924 70.972 46.6992 72.6576 46.6992C74.8724 46.6992 76.4012 47.4614 76.4012 47.4614V44.1784C76.4012 44.1784 74.304 43.5336 72.5008 43.5336C69.2864 43.5336 66.6208 44.3543 66.6208 47.3636C66.6208 50.373 68.0908 51.0569 70.1096 51.6236C72.1284 52.1903 73.1476 52.6398 73.1476 53.3237C73.1476 53.9881 72.638 54.3985 71.1484 54.3985C68.5808 54.3985 66.7384 53.4019 66.7384 53.4019V56.6262C66.7384 56.6262 68.5416 57.486 71.5404 57.486C75.6564 57.486 77.1656 55.4537 77.1656 53.4019C77.1656 51.3501 76.1856 49.8063 73.9904 49.2201Z" fill="#001A5E"/>
<path d="M95.0996 43.8658L91.6696 50.5489L88.2396 43.8658H84.3392V57.2124H88.2592V50.2167L90.6308 55.0238H91.6696H92.7084L95.0996 50.2167V57.2124H99.0196V43.8658H95.0996Z" fill="#001A5E"/>
</svg>

<svg xmlns="http://www.w3.org/2000/svg" width="100" height="100" fill="none"><path fill="#001A5E" d="M12.564 62.02c6.376 0 11.544-5.154 11.544-11.51 0-6.357-5.168-11.51-11.544-11.51S1.019 44.153 1.019 50.51c0 6.356 5.169 11.51 11.545 11.51"/><path fill="#7A9AEF" d="M13.29 39.02c-5.293.332-9.487 4.728-9.487 10.102 0 5.59 4.547 10.123 10.153 10.123 5.39 0 9.78-4.182 10.133-9.458-.373-5.785-5.018-10.396-10.8-10.767"/><path fill="#001A5E" d="M10.976 57.506c3.15 0 5.704-2.546 5.704-5.687 0-3.14-2.554-5.687-5.704-5.687S5.273 48.68 5.273 51.82s2.553 5.686 5.703 5.686"/><path fill="#001A5E" d="m9.685 50.292-6.479 5.405 2.59 3.087 6.48-5.404zM33.712 51.878h2.646v1.895s-.47.352-1.999.352c-1.137 0-3.195-.274-3.195-3.38 0-3.557 2.078-3.87 3.999-3.87 1.92 0 3.802.645 3.802.645v-3.38s-1.352-.606-4.135-.606c-3.176 0-7.742 1.485-7.742 6.526 0 4.768 2.175 7.406 7.33 7.406 3.704 0 5.272-1.23 5.272-1.23v-6.781h-5.978zM82.497 43.866h-3.92v13.346h3.92zM61.133 50.94l-5.077-7.074h-3.41v13.346h3.92v-6.995l5.096 6.995h3.39V43.866h-3.92zM44.12 43.866h-2.96v13.346h10.251000000000001v-2.95h-6.33v-2.248h5.487v-2.95H45.08v-2.248h6.331v-2.95H44.12M73.99 49.22c-2.195-.586-3.41-.782-3.41-1.505s.392-1.016 2.078-1.016c2.214 0 3.743.762 3.743.762v-3.283s-2.097-.644-3.9-.644c-3.215 0-5.88.82-5.88 3.83 0 3.009 1.47 3.693 3.489 4.26 2.018.566 3.038 1.016 3.038 1.7 0 .664-.51 1.075-2 1.075-2.567 0-4.41-.997-4.41-.997v3.224s1.804.86 4.802.86c4.116 0 5.626-2.032 5.626-4.084s-.98-3.596-3.176-4.182M95.1 43.866l-3.43 6.683-3.43-6.683h-3.9v13.346h3.92v-6.995l2.37 4.807h2.0780000000000003l2.392-4.807v6.995h3.92V43.866z"/></svg>
